X:661
T:Introduction and Interlude
B:Kerr's Merry Melodies for the Piano (n.d.)
Z:Nigel Gatherer
L:1/8
M:4/4
K:G
G2 g2 G2 g2 | G2 GA BABG | D2 d2 D2 d2 | D2 d2 (3fed (3cBA  |
G2 g2 G2 g2 | G2 GA BABG | D2 d2 D2 d2 | (3fed (3cBA G2 z2 |]
